X: 35753
T: Salamanca, The
R: reel
M: 4/4
K: Dmajor
|:dB|ADFD ADFD|Adcd fedc|BEGE BEGE|Beed cdeg|
fBcB fBcB|fdec dfag|fgef dBAG|FGEF D2:|
|:fg|afdg bgeg|fdec dcBc|Addc defg|a>agb a2fg|
agaf gfge|fdec dfag|fgef dBAG|FGEF D2:|

